packages/foundations/assets/icons/functional/images/environment/snow_flake.svg

<svg xmlns="http://www.w3.org/2000/svg" width="32" height="32" fill="none"><path fill="#1A1C1F" fill-rule="evenodd" d="M15.54 3.28c-.367.219-.415.383-.438 1.487l-.019.954-.595-.588c-.327-.323-.647-.615-.711-.647a.9.9 0 0 0-.336-.059c-.58 0-.997.53-.851 1.082.05.191.241.407 1.282 1.453l1.222 1.228-.014 3.131-.013 3.131-2.771-1.598c-1.524-.879-2.786-1.629-2.806-1.666s-.209-.715-.42-1.505-.418-1.501-.459-1.58a1.1 1.1 0 0 0-.237-.281c-.526-.443-1.388-.029-1.387.666 0 .098.073.451.162.785.09.333.156.625.147.648s-.321-.135-.693-.353c-.8-.468-1.013-.519-1.373-.331-.3.156-.435.341-.469.644-.034.308.059.588.251.749.083.07.5.328.926.574s.77.453.763.459-.383.112-.837.233-.918.272-1.033.336c-.512.282-.552 1.088-.071 1.431.321.228.528.202 2.397-.299l1.723-.462 2.64 1.524c1.452.838 2.64 1.547 2.64 1.576 0 .07-5.629 3.322-5.74 3.317a37 37 0 0 1-1.499-.382c-1.62-.433-1.837-.455-2.157-.223-.27.195-.357.404-.326.781.019.232.057.328.18.458.212.223.329.275 1.022.452.33.085.6.171.6.191s-.222.161-.493.315a9 9 0 0 0-.673.411c-.447.33-.436 1.028.023 1.378.166.127.253.153.499.153.276 0 .352-.031 1.044-.435.411-.239.754-.415.763-.39s-.08.409-.2.852c-.248.924-.261 1.117-.095 1.413.129.231.488.454.732.454.193 0 .587-.213.712-.384.059-.082.305-.89.574-1.886.258-.959.481-1.756.496-1.77s1.246-.731 2.736-1.592l2.709-1.564.013 3.316.014 3.316-1.221 1.228c-1.344 1.354-1.406 1.443-1.287 1.866.143.51.676.793 1.157.614.083-.031.417-.321.742-.645l.593-.589.034.253c.019.138.035.491.035.784 0 .585.081.816.363 1.026.212.158.775.151 1.003-.012.294-.21.36-.43.384-1.288l.022-.766.594.59c.326.325.661.616.744.647.652.243 1.33-.358 1.154-1.024-.051-.194-.238-.405-1.283-1.456l-1.222-1.228.014-3.316.013-3.315 2.717 1.568c1.494.863 2.732 1.6 2.752 1.638s.234.819.478 1.735.488 1.739.541 1.827c.305.501 1.058.54 1.415.073.229-.301.221-.559-.05-1.553-.13-.477-.226-.867-.214-.867s.362.198.778.44c.702.408.778.44 1.054.44.246 0 .333-.026.499-.153.459-.35.47-1.048.023-1.378a9 9 0 0 0-.673-.411c-.271-.154-.493-.296-.493-.316s.281-.109.625-.196.697-.208.785-.267c.537-.361.546-1.143.017-1.466-.286-.174-.586-.135-2.108.271-.776.208-1.451.379-1.499.382-.113.005-5.776-3.265-5.755-3.324.008-.025 1.203-.731 2.655-1.569l2.64-1.524 1.733.466c.954.257 1.824.465 1.934.463.264-.005.584-.221.704-.474.178-.375.07-.871-.238-1.091-.081-.057-.552-.214-1.046-.348s-.904-.25-.911-.258c-.007-.007.335-.211.76-.454s.843-.5.928-.572c.195-.164.29-.443.255-.753-.034-.303-.169-.488-.469-.644-.36-.188-.573-.137-1.373.331-.372.218-.684.377-.693.353-.009-.023.057-.315.147-.648.089-.334.162-.685.162-.781 0-.39-.243-.699-.642-.819q-.441-.132-.804.211c-.201.19-.217.233-.557 1.503a71 71 0 0 1-.44 1.587l-.09.281-2.773 1.599-2.774 1.598-.013-3.132-.014-3.132 1.195-1.2c.657-.661 1.224-1.259 1.26-1.329.106-.21.08-.615-.054-.831-.206-.334-.758-.508-1.084-.342-.064.032-.384.324-.711.647l-.595.588-.019-.954c-.023-1.109-.071-1.271-.443-1.489a.86.86 0 0 0-.915.002"/></svg>

<svg width="32" height="32" viewBox="0 0 32 32" fill="none" xmlns="http://www.w3.org/2000/svg"><path d="M15.540 3.280 C 15.173 3.499,15.125 3.663,15.102 4.767 L 15.083 5.721 14.488 5.133 C 14.161 4.810,13.841 4.518,13.777 4.486 C 13.713 4.453,13.562 4.427,13.441 4.427 C 12.861 4.427,12.444 4.957,12.590 5.509 C 12.640 5.700,12.831 5.916,13.872 6.962 L 15.094 8.190 15.080 11.321 L 15.067 14.452 12.296 12.854 C 10.772 11.975,9.510 11.225,9.490 11.188 C 9.470 11.151,9.281 10.473,9.070 9.683 C 8.859 8.893,8.652 8.182,8.611 8.103 C 8.571 8.024,8.464 7.897,8.374 7.822 C 7.848 7.379,6.986 7.793,6.987 8.488 C 6.987 8.586,7.060 8.939,7.149 9.273 C 7.239 9.606,7.305 9.898,7.296 9.921 C 7.287 9.945,6.975 9.786,6.603 9.568 C 5.803 9.100,5.590 9.049,5.230 9.237 C 4.930 9.393,4.795 9.578,4.761 9.881 C 4.727 10.189,4.820 10.469,5.012 10.630 C 5.095 10.700,5.512 10.958,5.938 11.204 C 6.365 11.450,6.708 11.657,6.701 11.663 C 6.694 11.670,6.318 11.775,5.864 11.896 C 5.411 12.017,4.946 12.168,4.831 12.232 C 4.319 12.514,4.279 13.320,4.760 13.663 C 5.081 13.891,5.288 13.865,7.157 13.364 L 8.880 12.902 11.520 14.426 C 12.972 15.264,14.160 15.973,14.160 16.002 C 14.160 16.072,8.531 19.324,8.420 19.319 C 8.372 19.316,7.697 19.145,6.921 18.937 C 5.301 18.504,5.084 18.482,4.764 18.714 C 4.494 18.909,4.407 19.118,4.438 19.495 C 4.457 19.727,4.495 19.823,4.618 19.953 C 4.830 20.176,4.947 20.228,5.640 20.405 C 5.970 20.490,6.240 20.576,6.240 20.596 C 6.240 20.616,6.018 20.757,5.747 20.911 C 5.475 21.064,5.173 21.249,5.074 21.322 C 4.627 21.652,4.638 22.350,5.097 22.700 C 5.263 22.827,5.350 22.853,5.596 22.853 C 5.872 22.853,5.948 22.822,6.640 22.418 C 7.051 22.179,7.394 22.003,7.403 22.028 C 7.413 22.053,7.323 22.437,7.203 22.880 C 6.955 23.804,6.942 23.997,7.108 24.293 C 7.237 24.524,7.596 24.747,7.840 24.747 C 8.033 24.747,8.427 24.534,8.552 24.363 C 8.611 24.281,8.857 23.473,9.126 22.477 C 9.384 21.518,9.607 20.721,9.622 20.707 C 9.637 20.692,10.868 19.976,12.358 19.115 L 15.067 17.551 15.080 20.867 L 15.094 24.183 13.873 25.411 C 12.529 26.765,12.467 26.854,12.586 27.277 C 12.729 27.787,13.262 28.070,13.743 27.891 C 13.826 27.860,14.160 27.570,14.485 27.246 L 15.078 26.657 15.112 26.910 C 15.131 27.048,15.147 27.401,15.147 27.694 C 15.147 28.279,15.228 28.510,15.510 28.720 C 15.722 28.878,16.285 28.871,16.513 28.708 C 16.807 28.498,16.873 28.278,16.897 27.420 L 16.919 26.654 17.513 27.244 C 17.839 27.569,18.174 27.860,18.257 27.891 C 18.909 28.134,19.587 27.533,19.411 26.867 C 19.360 26.673,19.173 26.462,18.128 25.411 L 16.906 24.183 16.920 20.867 L 16.933 17.552 19.650 19.120 C 21.144 19.983,22.382 20.720,22.402 20.758 C 22.421 20.796,22.636 21.577,22.880 22.493 C 23.124 23.410,23.368 24.232,23.421 24.320 C 23.726 24.821,24.479 24.860,24.836 24.393 C 25.065 24.092,25.057 23.834,24.786 22.840 C 24.656 22.363,24.560 21.973,24.572 21.973 C 24.584 21.973,24.934 22.171,25.350 22.413 C 26.052 22.821,26.128 22.853,26.404 22.853 C 26.650 22.853,26.737 22.827,26.903 22.700 C 27.362 22.350,27.373 21.652,26.926 21.322 C 26.827 21.249,26.525 21.064,26.253 20.911 C 25.982 20.757,25.760 20.615,25.760 20.595 C 25.760 20.574,26.041 20.486,26.385 20.399 C 26.728 20.311,27.082 20.191,27.170 20.132 C 27.707 19.771,27.716 18.989,27.187 18.666 C 26.901 18.492,26.601 18.531,25.079 18.937 C 24.303 19.145,23.628 19.316,23.580 19.319 C 23.467 19.324,17.804 16.054,17.825 15.995 C 17.833 15.970,19.028 15.264,20.480 14.426 L 23.120 12.902 24.853 13.368 C 25.807 13.625,26.677 13.833,26.787 13.831 C 27.051 13.826,27.371 13.610,27.491 13.357 C 27.669 12.982,27.561 12.486,27.253 12.266 C 27.172 12.209,26.701 12.052,26.207 11.918 C 25.713 11.784,25.303 11.668,25.296 11.660 C 25.289 11.653,25.631 11.449,26.056 11.206 C 26.481 10.963,26.899 10.706,26.984 10.634 C 27.179 10.470,27.274 10.191,27.239 9.881 C 27.205 9.578,27.070 9.393,26.770 9.237 C 26.410 9.049,26.197 9.100,25.397 9.568 C 25.025 9.786,24.713 9.945,24.704 9.921 C 24.695 9.898,24.761 9.606,24.851 9.273 C 24.940 8.939,25.013 8.588,25.013 8.492 C 25.013 8.102,24.770 7.793,24.371 7.673 C 24.077 7.585,23.809 7.655,23.567 7.884 C 23.366 8.074,23.350 8.117,23.010 9.387 C 22.817 10.105,22.619 10.820,22.570 10.974 L 22.480 11.255 19.707 12.854 L 16.933 14.452 16.920 11.320 L 16.906 8.188 18.101 6.988 C 18.758 6.327,19.325 5.729,19.361 5.659 C 19.467 5.449,19.441 5.044,19.307 4.828 C 19.101 4.494,18.549 4.320,18.223 4.486 C 18.159 4.518,17.839 4.810,17.512 5.133 L 16.917 5.721 16.898 4.767 C 16.875 3.658,16.827 3.496,16.455 3.278 C 16.157 3.103,15.833 3.104,15.540 3.280 " fill="#1A1C1F" stroke="none" fill-rule="evenodd"></path></svg>
